resources/dark/refresh.svg

<svg fill="none" height="16" viewBox="0 0 16 16" width="16" xmlns="http://www.w3.org/2000/svg" xmlns:xlink="http://www.w3.org/1999/xlink"><linearGradient id="a" gradientUnits="userSpaceOnUse" x1="8" x2="8" y1="2" y2="14"><stop offset="0" stop-color="#6e78f5"/><stop offset="1" stop-color="#916ef7"/></linearGradient><path d="m10.7755 5.03097c-.7564-.7082-1.73789-1.09641-2.77918-1.09549-1.87398.00165-3.4918 1.28657-3.93849 3.06896-.03252.12975-.14811.22137-.28188.22137h-1.38636c-.1814 0-.31921-.16469-.28565-.34297.52347-2.77984 2.96412-4.88284 5.89606-4.88284 1.60761 0 3.0675.63232 4.1447 1.66173l.8641-.86407c.3658-.36578.9912-.10672.9912.41059v3.24336c0 .32069-.26.58065-.5806.58065h-3.2434c-.51731 0-.77638-.62543-.4106-.99124zm-8.19485 3.93677h3.24336c.5173 0 .77637.62543.41059.99124l-1.01008 1.01012c.75633.7082 1.73794 1.0964 2.77925 1.0954 1.87302-.0017 3.49153-1.2857 3.93843-3.06889.0325-.12975.1481-.22137.2818-.22137h1.3864c.1814 0 .3192.16469.2857.34297-.5235 2.77979-2.9642 4.88279-5.8961 4.88279-1.60761 0-3.06752-.6323-4.14472-1.6617l-.86407.864c-.36578.3658-.99121.1068-.99121-.4106v-3.24331c0-.32069.25996-.58065.58065-.58065z" fill="url(#a)"/></svg>

<svg width="16" height="16" viewBox="0 0 16 16" fill="none" xmlns="http://www.w3.org/2000/svg">
<path d="M10.7755 5.03097C10.0191 4.32277 9.03761 3.93456 7.99632 3.93548C6.12234 3.93713 4.50452 5.22205 4.05783 7.00444C4.02531 7.13419 3.90972 7.22581 3.77595 7.22581H2.38959C2.20819 7.22581 2.07038 7.06112 2.10394 6.88284C2.62741 4.103 5.06806 2 8 2C9.60761 2 11.0675 2.63232 12.1447 3.66173L13.0088 2.79766C13.3746 2.43188 14 2.69094 14 3.20825V6.45161C14 6.7723 13.74 7.03226 13.4194 7.03226H10.176C9.65869 7.03226 9.39962 6.40683 9.7654 6.04102L10.7755 5.03097ZM2.58065 8.96774H5.82401C6.34131 8.96774 6.60038 9.59317 6.2346 9.95898L5.22452 10.9691C5.98085 11.6773 6.96246 12.0655 8.00377 12.0645C9.87679 12.0628 11.4953 10.7788 11.9422 8.99561C11.9747 8.86586 12.0903 8.77424 12.224 8.77424H13.6104C13.7918 8.77424 13.9296 8.93893 13.8961 9.11721C13.3726 11.897 10.9319 14 8 14C6.39239 14 4.93248 13.3677 3.85528 12.3383L2.99121 13.2023C2.62543 13.5681 2 13.3091 2 12.7917V9.54839C2 9.2277 2.25996 8.96774 2.58065 8.96774Z" fill="url(#paint0_linear)"/>
<defs>
<linearGradient id="paint0_linear" x1="8" y1="2" x2="8" y2="14" gradientUnits="userSpaceOnUse">
<stop stop-color="#6E78F5"/>
<stop offset="1" stop-color="#916EF7"/>
</linearGradient>
</defs>
</svg>
